X:468530
T:Cutting Bracken
H:
C: Trad 
B: Scots Guards I
O:Kevin Fraser
Z:Kevin Fraser
Q:3/8=120
K:HP
M:6/8
L:1/8
R:Jig
U: R = ///
U: r = //
U: V = !accent!
V:M gstem=up stem=down name="Melody"
V:H gstem=up stem=down name="Harmony"
V:C gstem=up stem=down name="C-Harmony"
V:S gstem=up stem=down dyn=up stafflines=1 clef=perc middle=G name="Snare" sname="Snare"
V:B gstem=up stem=down clef=none dyn=up name="Bass"
V:T gstem=up stem=down clef=none dyn=up name="Tenor"
V:BB gstem=up stem=down name="Brass Bass" sname="ABCD-C" transpose=-1  octave=-1 clef=bass
V:BC gstem=up stem=down name="Brass Chord" sname="ABCD-D" transpose=-1
V:BD gstem=up stem=down name="Brass Chord 2" sname="ABCD-B" transpose=-1
V:P gstem=up stem=down name="Piano" octave=-1
I:MIDI=program 110
%%MIDI gracedivider 4
%%MIDI gchord
%%MIDI beatstring 
% %alignbars 80
I:linebreak $
%%score {M S}
%%score {M}
%%MIDI program 109 #bagpipes
%%MIDI vol 100
[V:M][|: e | {g}A{d}A{e}A {ag}a3 |  {f}ge{A}e {gf}g3 |  {ef}e2d {gBd}B2A |  {g}G{d}A{e}A {g}B{d}G{e}G |  $
[V:M]    x  | {g}A{d}A{e}A {ag}a3 |  {f}ge{A}e {gf}g3 |  {ef}e2d {g}Be{A}e |  {g}A3 [1{GAG}A2 [2{GAG}A3 :|]  $
[V:M]X [|: {gef}e2d   {g}B{d}A{e}A | {g}G{d}A{e}A {g}B{d}G{e}G | {gef}e2d   {g}B{d}A{e}A | {gBd}B3 {Gdc}d3 | $
[V:M]  x|  {gef}e2d   {g}B{d}A{e}A | {g}G{d}A{e}A {g}B{d}G{e}G | {gef}e2d   {g}Be{A}e |  {g}A3 [1{GAG}A3 [2{GAG}A2 :|]  $
[V:M][|: G | {g}A{d}A{e}A {ag}a3 |  {f}ge{A}e {g}deg | G{d}G{e}G {gf}g2e | {g}dB{G}B {g}deB | $
[V:M]    x  | {g}A{d}A{e}A {ag}a3 | {f}ge{A}e {g}deg |   {ef}e2d {g}Be{A}e |  {g}A3 {GAG}A2:|]  $


